icons/hands-white.svg

<svg width="32" height="35" viewBox="0 0 32 35" fill="none" xmlns="http://www.w3.org/2000/svg">
<path fill-rule="evenodd" clip-rule="evenodd" d="M7.7836 26.4045C7.77389 19.3185 7.76904 15.7759 7.76904 15.7759C7.88339 14.1771 8.55283 13.4883 9.77668 13.7094C10.53 14.0919 10.9042 14.9485 10.8987 16.2776C11.1738 20.1751 11.3117 22.1238 11.3117 22.1238C11.5646 22.9638 12.214 22.9735 13.2604 22.1529C19.756 15.0282 23.0033 11.4654 23.0033 11.4654C24.5363 10.5236 25.512 11.4502 25.0408 12.8237C21.0255 17.823 19.0179 20.3227 19.0179 20.3227C18.8772 20.9651 19.1828 21.1418 19.9327 20.8542C25.011 16.3857 27.5502 14.1522 27.5502 14.1522C29.0887 13.4641 29.9265 14.5846 28.9674 16.0122C24.44 20.48 22.1766 22.7143 22.1766 22.7143C21.871 23.4572 22.1565 23.8016 23.0332 23.7475C27.5599 20.559 29.8232 18.9644 29.8232 18.9644C30.431 18.8979 30.8447 19.0067 31.0637 19.2894C31.447 19.803 31.4567 20.2756 31.0928 20.7066C26.625 24.2299 24.3908 25.9915 24.3908 25.9915C23.9743 26.7081 24.1711 27.067 24.9812 27.0691C28.4851 25.1987 30.237 24.2638 30.237 24.2638C30.8642 24.1003 31.2481 24.2278 31.3881 24.6478C31.5086 25.1336 31.2924 25.5764 30.7387 25.9762C23.5827 31.0303 19.1101 33.8308 17.32 34.3762C13.8072 34.9805 11.022 33.986 8.96446 31.3942C8.30333 29.9347 7.9097 28.2715 7.78358 26.4046L7.7836 26.4045Z" fill="white"/>
<path fill-rule="evenodd" clip-rule="evenodd" d="M0.403213 16.662C2.6437 18.8934 4.71994 20.8027 6.63263 22.3897C6.63263 22.3897 6.63263 20.628 6.63263 17.1048C3.16829 15.1755 1.43647 14.2115 1.43647 14.2115C-0.0285388 14.1346 -0.372962 14.9516 0.403201 16.662H0.403213Z" fill="white"/>
<path fill-rule="evenodd" clip-rule="evenodd" d="M9.56334 12.5425C8.06714 12.4836 7.73242 13.0741 7.73242 13.0741C7.73242 13.0741 7.73519 9.62498 7.7546 3.11005C8.30623 1.2722 10.4227 1.7185 10.6188 3.28677C11.2681 9.19189 11.5925 12.1441 11.5925 12.1441C12.2744 12.5689 12.6985 12.4795 12.8648 11.8766C12.7844 4.71295 12.7442 1.13155 12.7442 1.13155C13.3021 -0.650859 15.431 -0.194862 15.844 1.57438C15.8835 8.85717 15.9036 12.4982 15.9036 12.4982C16.3 12.6888 16.684 12.6105 17.0547 12.2619C17.842 6.57375 18.2356 3.72968 18.2356 3.72968C19.061 2.22655 20.3361 3.03044 20.6272 4.20231C20.1351 10.0478 19.8891 12.9709 19.8891 12.9709C15.7754 17.3604 13.7186 19.5545 13.7186 19.5545C13.0824 20.3071 12.58 19.8081 12.5079 19.4665C12.3111 16.14 11.9695 14.2849 11.9695 14.2849C11.6119 13.21 10.7013 12.472 9.56335 12.5426L9.56334 12.5425Z" fill="white"/>
</svg>

<svg width="32" height="35" fill="none" xmlns="http://www.w3.org/2000/svg"><path fill-rule="evenodd" clip-rule="evenodd" d="m7.784 26.404-.015-10.628c.114-1.599.784-2.288 2.008-2.067.753.383 1.127 1.24 1.122 2.569l.413 5.846c.253.84.902.85 1.948.029l9.743-10.688c1.533-.941 2.509-.015 2.038 1.359l-6.023 7.499c-.14.642.165.819.915.531l7.617-6.702c1.539-.688 2.377.433 1.417 1.86a68905.1 68905.1 0 0 0-6.79 6.702c-.306.743-.02 1.088.856 1.034l6.79-4.784c.608-.066 1.022.043 1.24.325.384.514.394.987.03 1.418L24.39 25.99c-.417.717-.22 1.076.59 1.078l5.256-2.805c.627-.164 1.011-.036 1.151.384.12.486-.096.928-.65 1.328-7.155 5.054-11.628 7.855-13.418 8.4-3.513.605-6.298-.39-8.356-2.982-.66-1.46-1.054-3.122-1.18-4.99zM.403 16.662c2.24 2.231 4.317 4.14 6.23 5.728v-5.285L1.436 14.21c-1.465-.076-1.809.74-1.033 2.451z" fill="#fff"/><path fill-rule="evenodd" clip-rule="evenodd" d="M9.563 12.543c-1.496-.06-1.83.531-1.83.531s.002-3.449.022-9.964c.551-1.838 2.668-1.391 2.864.177.65 5.905.973 8.857.973 8.857.682.425 1.106.335 1.273-.267l-.12-10.745c.557-1.783 2.686-1.327 3.099.442l.06 10.924c.396.19.78.113 1.15-.236l1.182-8.532c.825-1.503 2.1-.7 2.391.472l-.738 8.769-6.17 6.584c-.637.752-1.139.253-1.211-.088-.197-3.327-.538-5.182-.538-5.182-.358-1.075-1.269-1.813-2.407-1.742z" fill="#fff"/></svg>
